dist/img/logo/uzmanlik.svg

<svg width="60" height="60" viewBox="0 0 60 60" fill="none" xmlns="http://www.w3.org/2000/svg">
<g clip-path="url(#clip0_52_899)">
<path d="M59.2308 30.0001C59.2308 13.8564 46.1437 0.769287 30.0001 0.769287C13.8564 0.769287 0.769287 13.8564 0.769287 30.0001C0.769287 46.1437 13.8564 59.2308 30.0001 59.2308C46.1437 59.2308 59.2308 46.1437 59.2308 30.0001Z" stroke="#3271B2" stroke-width="2"/>
<path d="M21.3308 38.3155L30.0385 47.0155L34.877 42.1771C35.6385 45.4617 38.8847 47.5386 42.1924 46.8617C45.4924 46.1925 47.6616 43.0001 47.077 39.6771L45.7462 39.9155C45.7924 40.2001 45.8232 40.4848 45.8232 40.7694C45.8232 43.4694 43.6385 45.6463 40.9462 45.6463C38.2539 45.6463 36.0693 43.4694 36.0693 40.7694C36.0693 38.0771 38.2539 35.9001 40.9462 35.9001C42.0385 35.8925 43.1001 36.2617 43.9539 36.9386L44.7924 35.8771C44.0693 35.3078 43.2385 34.9078 42.3462 34.7078L47.3078 29.7463L39.1616 21.5925L38.9693 21.4001L38.6078 21.0386L29.9693 12.4001L21.3308 21.0386L12.6924 29.6771L20.8539 37.8386L21.3308 38.3155ZM34.7308 40.4155L30.0385 45.1078L22.7616 37.8386L24.2693 36.3309C24.977 37.2617 26.1539 37.7001 27.3001 37.4463C28.4385 37.2001 29.3308 36.3078 29.5847 35.1694C29.8308 34.0232 29.3924 32.8386 28.4616 32.1386L29.9693 30.6309L33.0308 33.6925L33.3232 32.5463C33.5232 31.7694 34.2539 31.2463 35.0539 31.3155C35.8539 31.3848 36.4924 32.0155 36.5539 32.8155C36.6232 33.6155 36.1001 34.3463 35.3231 34.5463L34.177 34.8386L36.1462 36.8078C35.3001 37.8309 34.8078 39.0925 34.7308 40.4155ZM45.4001 29.7463L40.5847 34.5617C39.3231 34.6309 38.1155 35.0925 37.1155 35.8694L36.6462 35.4001C37.6155 34.7078 38.0924 33.5155 37.8462 32.3463C37.6078 31.1771 36.6924 30.2694 35.5308 30.0232C34.3616 29.7848 33.1616 30.254 32.477 31.2309L30.9232 29.6771L33.877 26.7232L32.8001 26.4001C32.0462 26.1694 31.5693 25.4463 31.6462 24.6617C31.7232 23.8848 32.3385 23.2694 33.1155 23.1925C33.9001 23.1155 34.6232 23.6001 34.8539 24.3463L35.1693 25.3925L38.1847 22.5232L45.4001 29.7463ZM37.2308 21.5694L35.6847 23.0463C34.9847 22.1001 33.8001 21.654 32.6539 21.9001C31.5078 22.1463 30.6078 23.0386 30.3616 24.1771C30.1078 25.3232 30.5462 26.5078 31.477 27.2155L29.9693 28.7232L27.0155 25.7694L26.6924 26.8463C26.6155 27.1001 26.4693 27.3386 26.2847 27.5309C25.6385 28.1694 24.6001 28.1694 23.9539 27.5309C23.3155 26.8848 23.3155 25.8463 23.9539 25.2001C24.1462 25.0155 24.3847 24.8694 24.6385 24.7925L25.7155 24.4694L22.7616 21.5155L29.9693 14.3078L37.2308 21.5694ZM14.6001 29.6771L21.8078 22.4694L23.3155 23.9771C22.3847 24.6771 21.9462 25.8617 22.1924 27.0078C22.4462 28.1463 23.3385 29.0386 24.477 29.2848C25.6232 29.5386 26.8001 29.1001 27.5078 28.1694L29.0155 29.6771L26.0616 32.6232L27.1385 32.954C27.4001 33.0309 27.6308 33.1694 27.8231 33.3617C28.4616 34.0078 28.4616 35.0463 27.8231 35.6848C27.177 36.3309 26.1385 36.3309 25.4924 35.6848C25.3078 35.5001 25.1616 35.2617 25.0847 35.0078L24.7616 33.9309L21.8078 36.8848L14.6001 29.6771Z" fill="#00AEEF"/>
<path d="M39.3 39.9461L38.4077 40.8308L41.3231 43.7538L47.3 37.9768L46.4308 37.0769L41.3462 41.9846L39.3 39.9461Z" fill="#E0027A"/>
</g>
<defs>
<clipPath id="clip0_52_899">
<rect width="60" height="60" fill="white"/>
</clipPath>
</defs>
</svg>

<svg width="60" height="60" viewBox="0 0 60 60" fill="none" xmlns="http://www.w3.org/2000/svg"><g clip-path="url(#clip0_52_899)"><path d="M59.23 30C59.23 13.856 46.145.77 30 .77S.77 13.855.77 30 13.855 59.23 30 59.23 59.23 46.145 59.23 30z" stroke="#3271B2" stroke-width="2"/><path d="M21.33 38.316l8.709 8.7 4.838-4.839c.761 3.285 4.008 5.362 7.315 4.685 3.3-.67 5.47-3.862 4.885-7.185l-1.33.239a4.874 4.874 0 01-4.8 5.73 4.873 4.873 0 110-9.746 4.792 4.792 0 013.007 1.039l.838-1.062a6.11 6.11 0 00-2.446-1.17l4.962-4.96-8.146-8.154-.193-.193-.361-.361-8.639-8.639-8.638 8.639-8.639 8.638 8.162 8.162.477.477zm13.4 2.1l-4.691 4.692-7.277-7.27 1.507-1.507a2.99 2.99 0 003.031 1.115 2.996 2.996 0 002.285-2.277 3.003 3.003 0 00-1.123-3.03l1.507-1.508 3.062 3.062.292-1.147c.2-.777.93-1.3 1.73-1.23.8.069 1.44.7 1.5 1.5.07.8-.453 1.53-1.23 1.73l-1.146.293 1.97 1.969a6.22 6.22 0 00-1.416 3.608zm10.67-10.67l-4.815 4.816a6.213 6.213 0 00-3.47 1.307l-.469-.469a2.993 2.993 0 001.2-3.054 2.992 2.992 0 00-2.315-2.323 2.993 2.993 0 00-3.054 1.208l-1.554-1.554 2.954-2.954L32.8 26.4a1.64 1.64 0 01-1.154-1.738 1.64 1.64 0 011.47-1.47 1.649 1.649 0 011.738 1.154l.315 1.046 3.016-2.869 7.215 7.223zm-8.17-8.177l-1.545 1.477a2.988 2.988 0 00-3.031-1.146 2.984 2.984 0 00-2.292 2.277 3.001 3.001 0 001.115 3.038l-1.508 1.508-2.954-2.954-.323 1.077a1.73 1.73 0 01-.407.685 1.658 1.658 0 01-2.331 0 1.658 1.658 0 010-2.33c.192-.186.43-.332.684-.409l1.077-.323-2.953-2.954 7.207-7.207 7.262 7.261zM14.6 29.677l7.208-7.208 1.508 1.508a3.003 3.003 0 00-1.124 3.03 2.996 2.996 0 002.285 2.278 2.99 2.99 0 003.03-1.116l1.508 1.508-2.953 2.946 1.076.331c.262.077.493.215.685.408a1.648 1.648 0 010 2.323 1.644 1.644 0 01-2.738-.677l-.323-1.077-2.954 2.954-7.208-7.208z" fill="#00AEEF"/><path d="M39.3 39.946l-.892.885 2.915 2.923 5.977-5.777-.87-.9-5.084 4.908-2.046-2.039z" fill="#E0027A"/></g><defs><clipPath id="clip0_52_899"><rect width="60" height="60" fill="#fff"/></clipPath></defs></svg>
